X: 43455
T: Ye Banks And Braes O' Bonnie Doon
R: jig
M: 6/8
K: Gmajor
|D2|:G4 G2|A2 G2 A2|B2 d2 B2|A2 G2 A2|
B3 A G2|G2 E2 D2|D2 E2 G2|A4 D2|G4 G2|
A2 G2 A2|B2 d2 B2|A2 G2 A2|B3 A G2|
G2 E2 D2|D2 E2 G2|1 G4 D2:|2 G4 B2||
|:d4 e2|d2 B2 G2|d4 e2|d2 B2 G2|d2 B2 G2|
d2 B2 G2|e3 d cB|A4 BA|G4 G2|A2 G2 A2|
B2 d2 B2|A2 G2 A2|B3 A G2|G2 E2 D2|
D2 E2 F2|1 G4 B2:|2 G4||

